svg/filled/proxy.svg

<svg width="24" height="24" viewBox="0 0 24 24" fill="none" xmlns="http://www.w3.org/2000/svg">
<path fill-rule="evenodd" clip-rule="evenodd" d="M12 6.25004C12.4142 6.25004 12.75 6.58583 12.75 7.00004L12.75 17C12.75 17.4143 12.4142 17.75 12 17.75C11.5858 17.75 11.25 17.4143 11.25 17L11.25 7.00004C11.25 6.58583 11.5858 6.25004 12 6.25004Z" fill="black"/>
<path fill-rule="evenodd" clip-rule="evenodd" d="M6.06477 8.39895C6.36289 8.11138 6.83769 8.11994 7.12526 8.41806L10.0781 11.4793C10.3584 11.7698 10.3584 12.2301 10.0781 12.5207L7.12526 15.5819C6.83769 15.88 6.36289 15.8886 6.06477 15.601C5.76665 15.3134 5.75809 14.8386 6.04566 14.5405L7.77265 12.7501H4.00009C3.58588 12.7501 3.25009 12.4144 3.25009 12.0001C3.25009 11.5859 3.58588 11.2501 4.00009 11.2501L7.77298 11.2501L6.04566 9.45944C5.75809 9.16132 5.76665 8.68652 6.06477 8.39895Z" fill="black"/>
<path fill-rule="evenodd" clip-rule="evenodd" d="M16.5264 8.39895C16.8246 8.11138 17.2994 8.11994 17.5869 8.41806L20.5398 11.4793C20.8201 11.7698 20.8201 12.2301 20.5398 12.5207L17.5869 15.5819C17.2994 15.88 16.8246 15.8886 16.5264 15.601C16.2283 15.3134 16.2198 14.8386 16.5073 14.5405L18.2344 12.7501L14.4617 12.75C14.0475 12.7499 13.7117 12.4141 13.7118 11.9999C13.7118 11.5857 14.0476 11.2499 14.4618 11.25L18.2346 11.2501L16.5073 9.45944C16.2198 9.16132 16.2283 8.68652 16.5264 8.39895Z" fill="black"/>
</svg>

<svg xmlns="http://www.w3.org/2000/svg" viewBox="0 0 24 24" fill="currentColor">
  <path fill-rule="evenodd" d="M12 6.25a.75.75 0 01.75.75v10a.75.75 0 11-1.5 0V7a.75.75 0 01.75-.75zM6.065 8.399a.75.75 0 011.06.02l2.953 3.06c.28.29.28.751 0 1.042l-2.953 3.06a.75.75 0 11-1.08-1.04l1.728-1.79H4a.75.75 0 110-1.5h3.773L6.046 9.458a.75.75 0 01.019-1.06zM16.526 8.399a.75.75 0 011.06.02l2.954 3.06c.28.29.28.751 0 1.042l-2.953 3.06a.75.75 0 11-1.08-1.04l1.727-1.79-3.772-.001a.75.75 0 010-1.5h3.773l-1.728-1.79a.75.75 0 01.02-1.061z" clip-rule="evenodd"/>
</svg>
